!!!SOCIAL_FUNCTION:	songs of dances presented at makah day celebrations
!!!PDT:	1939
!!!OTL: No_62_Song_With_Changeable_Mask_Dance.krn
!!!LANG: Non-Tone
!!!LING_GROUP: Wakashan
!!!REG: Pacific Northwest
**kern
*staff1
=1-
*clefF4
*k[b-e-]
*M2/4
4r
8r
8c\
=2!|:
4d\
8d\L
8d\J
=3
4d\
8c#\L
8d\J
=4
4d\
8c#\L
8cn\J
=5
4B-\
8r
8B-\
=6||
*M3/8
(8B-\L
8F\)
8d\J
=7
(8d\L
8B-\
16d\Jk)
16r
=8||
*M5/8
8c#\
4d\
16.cn\LL
32d\JK
8c\J
=9||
*M2/4
2B-\
=10||
*M3/8
4r
8F\
=11||
*M2/4
4B-\
8B-\L
8c\J
=12
4d\
8r
8c\
=13
4d\
16.c\LL
32d\JK
8c\J
=14
2B-\
=15||
*M3/8
4r
8F\
=16||
*M2/4
4B-\
8B-\L
8c\J
=17
4d\
8r
8d\
=18:|!
4d\
8d\L
8d\J
=19
8d\L
8B-\J
4r
==
*-
